X: 57
T: Holy Night
C: music: Franz Gruber.
C: words: Joseph Mohr. (Translated)
%R: air, waltz
B: "The Everyday Song Book", 1927
F: http://www.library.pitt.edu/happybirthday/pdf/The_Everyday_Song_Book.pdf
Z: 2017 John Chambers <jc:trillian.mit.edu>
M: 6/8
L: 1/8
K: C
% - - - - - - - - - - - - - - -
[| !p!G>A G E3 | !pp!G>A G E3 !mf!| d2 d/>B/  B3 | !p!c2 c/G/ G3 |
w: 1.~Si-*lent night!  Ho-*ly night!  All is* calm, All is* bright!
w: 2.~Si-*lent night!  Ho-*ly night!  Shep-herds* quake at the* sight!
w: 3.~Si-*lent night!  Ho-*ly night!  Son of* God, love's pur* light
%
A2 A (c> B) A | (G> A) G E2 z | "^poco cres."A2 A (c> B) A | (G> A) G E2 z |
w: Round yon vir-*gin moth-er and Child! Ho-ly In-fant, so ten-der and mild,
w: Glo-ries stream* from heav-en a-far,  Heav'n-ly hosts* sing Al-le-lu-ia;
w: Ra-diant beams from Thy ho-*ly face,  With the dawn of re-deem-*ing grace,
%
!pp!d2 d f> d B | (c3 e2) z | !p!c>G E G> F D | C3- C2 z |]
w: Sleep in heav-en-ly peace,*   Sleep* in heav-en-ly peace.*
w: Christ the Sav-iour is born,* Christ* the Sav-iour is born.*
w: Je-sus, Lord, at thy birth,*  Je-*sus, Lord, at Thy birth.*
% - - - - - - - - - - - - - - -

%%sep 1 1 500
%%sep 1 1 500

